actions/22x22-light/zoom.svg

<svg xmlns="http://www.w3.org/2000/svg" viewBox="0 0 22 22">
 <defs id="defs3051">
   <style type="text/css" id="current-color-scheme">
     .ColorScheme-Text {
       color:#4d4d4d;
     }
     </style>
 </defs>
   <path
      style="fill:currentColor;fill-opacity:1;stroke:none"
      d="m10.98043 3.00005c-.10786.00039-.2171.0428-.29869.125l-1.68275 1.69727c-.0817.0823-.12338.1903-.12299.29882.00039.10853.0428.21719.12494.29883.16439.16325.43414.16231.59736-.002l1.38602-1.39649 1.3958 1.38672c.16438.16329.43416.16237.59737-.002.16328-.16445.1623-.43439-.002-.59766l-1.69642-1.68554c-.0822-.0816-.19075-.12344-.29868-.12305zm-4.27718.10742-3.18593.01c-.10129.00033-.19346.0427-.25963.10937-.0662.0666-.10767.15839-.10737.25977l.0117 3.1875c.00065.20279.16437.36592.36701.36523.20261-.00064.36762-.16443.36701-.36718l-.01-2.82032 2.81891-.01c.2026-.00064.36766-.16643.36701-.36914-.00055-.20278-.16622-.36594-.36895-.36524zm8.54654 0c-.20273-.0007-.36841.16246-.36896.36524-.00064.20271.16246.3685.36506.36914l2.82087.01-.01 2.82032c-.00061.20275.16244.36654.36505.36718.20264.00069.36831-.16244.36896-.36523l.01-3.1875c.0003-.10138-.0412-.19315-.10736-.25977-.0662-.0667-.15641-.10904-.2577-.10937l-3.18592-.01zm-7.72468 3.94922c-.26128 0-.47243.2093-.47243.4707v6.92188c0 .2614.21115.4707.47243.4707h6.91649c.26127 0 .47243-.2093.47243-.4707v-6.92188c0-.2614-.21116-.4707-.47243-.4707zm-2.40506 1.82422c-.10847-.00039-.21847.0395-.30063.12109l-1.69448 1.68555c-.0822.0816-.12455.19092-.12494.29883-.00039.10799.0395.21663.12104.29883l1.68471 1.69726c.16318.16434.43299.16532.59736.002.16424-.16329.16516-.4332.002-.59766l-1.38603-1.39844 1.39579-1.38672c.16418-.1633.16512-.43318.002-.59765-.0816-.0822-.18824-.12266-.29672-.12305zm11.75979 0c-.10847.00039-.21512.0408-.29672.12305-.16317.16447-.16223.43435.002.59765l1.39579 1.38672-1.38602 1.39844c-.16321.16446-.16229.43437.002.59766.16437.16336.43418.16238.59737-.002l1.6847-1.69726c.0816-.0822.12143-.19084.12104-.29883-.00039-.10791-.0428-.2172-.12493-.29883l-1.69448-1.68555c-.0822-.0816-.19217-.12148-.30064-.12109zm-13.37813 6.03906c-.20264-.00069-.36831.1644-.36896.36719l-.01 3.1875c-.0003.10138.0393.19314.10542.25977.0662.0667.15834.10709.25963.10742l3.18592.01c.20273.0007.36841-.16245.36896-.36523.00065-.20271-.16245-.36655-.36505-.36719l-2.82087-.01.01-2.82032c.00061-.20275-.16244-.3685-.36505-.36914zm14.89301 0c-.20261.00064-.36761.16639-.367.36914l.01 2.82032-2.81892.01c-.2026.00064-.36765.16448-.367.36719.00055.20278.16623.36789.36896.36719l3.18592-.0117c.10129-.00033.19346-.0407.25963-.10742.0662-.0666.10767-.15839.10737-.25977l-.0117-3.1875c-.00065-.20279-.16436-.36788-.367-.36719zm-9.0951 1.53906c-.10845-.00037-.21649.0395-.29868.1211-.0822.0816-.12455.1903-.12494.29883-.00039.10852.0413.21662.12299.29882l1.68275 1.69727c.0816.0821.19083.12461.29869.125.10793.00039.21652-.0415.29868-.12305l1.69642-1.68554c.16426-.16327.16524-.43321.002-.59766-.16321-.16432-.43299-.16524-.59737-.002l-1.3958 1.38672-1.38602-1.39649c-.0816-.0821-.19023-.12267-.29868-.12305z"
      class="ColorScheme-Text" />
</svg>

<svg xmlns="http://www.w3.org/2000/svg" viewBox="0 0 22 22">
  <defs id="defs3051">
    <style type="text/css" id="current-color-scheme">
      .ColorScheme-Text {
        color:#4d4d4d
      }
      </style>
  </defs>
    <path
       style="fill:currentColor;fill-opacity:1;stroke:none"
       class="ColorScheme-Text"
       d="m 10.98043,3.00005 c -0.10786,3.9e-4 -0.2171,0.0428 -0.29869,0.125 L 8.99899,4.82232 C 8.91729,4.90462 8.87561,5.01262 8.876,5.12114 8.87639,5.22967 8.9188,5.33833 9.00094,5.41997 9.16533,5.58322 9.43508,5.58228 9.5983,5.41797 l 1.38602,-1.39649 1.3958,1.38672 c 0.16438,0.16329 0.43416,0.16237 0.59737,-0.002 0.16328,-0.16445 0.1623,-0.43439 -0.002,-0.59766 L 11.27907,3.123 C 11.19687,3.0414 11.08832,2.99956 10.98039,2.99995 Z m -4.27718,0.10742 -3.18593,0.01 C 3.41603,3.1178 3.32386,3.16017 3.25769,3.22684 3.19149,3.29344 3.15002,3.38523 3.15032,3.48661 l 0.0117,3.1875 C 3.16267,6.8769 3.32639,7.04003 3.52903,7.03934 3.73164,7.0387 3.89665,6.87491 3.89604,6.67216 l -0.01,-2.82032 2.81891,-0.01 C 6.90755,3.8412 7.07261,3.67541 7.07196,3.4727 7.07141,3.26992 6.90574,3.10676 6.70301,3.10746 Z m 8.54654,0 c -0.20273,-7e-4 -0.36841,0.16246 -0.36896,0.36524 -6.4e-4,0.20271 0.16246,0.3685 0.36506,0.36914 l 2.82087,0.01 -0.01,2.82032 c -6.1e-4,0.20275 0.16244,0.36654 0.36505,0.36718 0.20264,6.9e-4 0.36831,-0.16244 0.36896,-0.36523 l 0.01,-3.1875 c 3e-4,-0.10138 -0.0412,-0.19315 -0.10736,-0.25977 -0.0662,-0.0667 -0.15641,-0.10904 -0.2577,-0.10937 l -3.18592,-0.01 z M 7.52511,7.05669 c -0.26128,0 -0.47243,0.2093 -0.47243,0.4707 l 0,6.92188 c 0,0.2614 0.21115,0.4707 0.47243,0.4707 l 6.91649,0 c 0.26127,0 0.47243,-0.2093 0.47243,-0.4707 l 0,-6.92188 c 0,-0.2614 -0.21116,-0.4707 -0.47243,-0.4707 l -6.91649,0 z M 5.12005,8.88091 C 5.01158,8.88052 4.90158,8.92041 4.81942,9.002 L 3.12494,10.68755 C 3.04274,10.76915 3.00039,10.87847 3,10.98638 c -3.9e-4,0.10799 0.0395,0.21663 0.12104,0.29883 l 1.68471,1.69726 c 0.16318,0.16434 0.43299,0.16532 0.59736,0.002 0.16424,-0.16329 0.16516,-0.4332 0.002,-0.59766 L 4.01908,10.98837 5.41487,9.60165 C 5.57905,9.43835 5.57999,9.16847 5.41687,9.004 5.33527,8.9218 5.22863,8.88134 5.12015,8.88095 Z m 11.75979,0 c -0.10847,3.9e-4 -0.21512,0.0408 -0.29672,0.12305 -0.16317,0.16447 -0.16223,0.43435 0.002,0.59765 l 1.39579,1.38672 -1.38602,1.39844 c -0.16321,0.16446 -0.16229,0.43437 0.002,0.59766 0.16437,0.16336 0.43418,0.16238 0.59737,-0.002 l 1.6847,-1.69726 c 0.0816,-0.0822 0.12143,-0.19084 0.12104,-0.29883 -3.9e-4,-0.10791 -0.0428,-0.2172 -0.12493,-0.29883 L 17.18059,9.00196 C 17.09839,8.92036 16.98842,8.88048 16.87995,8.88087 Z M 3.50171,14.91997 c -0.20264,-6.9e-4 -0.36831,0.1644 -0.36896,0.36719 l -0.01,3.1875 c -3e-4,0.10138 0.0393,0.19314 0.10542,0.25977 0.0662,0.0667 0.15834,0.10709 0.25963,0.10742 l 3.18592,0.01 c 0.20273,7e-4 0.36841,-0.16245 0.36896,-0.36523 6.5e-4,-0.20271 -0.16245,-0.36655 -0.36505,-0.36719 l -2.82087,-0.01 0.01,-2.82032 c 6.1e-4,-0.20275 -0.16244,-0.3685 -0.36505,-0.36914 z m 14.89301,0 c -0.20261,6.4e-4 -0.36761,0.16639 -0.367,0.36914 l 0.01,2.82032 -2.81892,0.01 c -0.2026,6.4e-4 -0.36765,0.16448 -0.367,0.36719 5.5e-4,0.20278 0.16623,0.36789 0.36896,0.36719 l 3.18592,-0.0117 c 0.10129,-3.3e-4 0.19346,-0.0407 0.25963,-0.10742 0.0662,-0.0666 0.10767,-0.15839 0.10737,-0.25977 l -0.0117,-3.1875 c -6.5e-4,-0.20279 -0.16436,-0.36788 -0.367,-0.36719 z m -9.0951,1.53906 c -0.10845,-3.7e-4 -0.21649,0.0395 -0.29868,0.1211 -0.0822,0.0816 -0.12455,0.1903 -0.12494,0.29883 -3.9e-4,0.10852 0.0413,0.21662 0.12299,0.29882 l 1.68275,1.69727 c 0.0816,0.0821 0.19083,0.12461 0.29869,0.125 0.10793,3.9e-4 0.21652,-0.0415 0.29868,-0.12305 l 1.69642,-1.68554 c 0.16426,-0.16327 0.16524,-0.43321 0.002,-0.59766 -0.16321,-0.16432 -0.43299,-0.16524 -0.59737,-0.002 l -1.3958,1.38672 -1.38602,-1.39649 C 9.51674,16.49993 9.40811,16.45936 9.29966,16.45898 Z"
        />
</svg>
